X:747
T:Da Forefit o' Da Ship
C:Joe Buchanan's Scottish Tome - Page 186.4
I:186 4
Z:Carl Allison
R:Shetland Reel
L:1/8
M:4/4
K:D
vd2 de dA vF2 | u(AB)AF (ED)EF | ((3AAA) AF ABde | f2 ed B2 AB :|
d2 (fd) adfd | d2 (fd) eAAf | (a2 a)(e f)def | vd(BuAF) E2 AB :|
